X: 305787
M: 2/4
L: 1/16
K: C
c2Bc dcBA | GAG^F G2G2 | A2F2 B2G2 | cded c2G2 |\
c2Bc dcBA | GAG^F G2G2 | A2dc BcdB | c6 H|]
e2e2 d2G2 | c2dc B2G2 | e2fe d2ed | c2dc B2d2 |\
g2g2 g^fe^d | e2e2 edcB | c2BA d2D2 | G2G2"^D.C."G2 |]
ed |\
c2cB A2fe | d2dc B2BA | ^G2F^F E2ed | c2cB A2A2 |\


